X:42
M:12/8
L:1/8
K:D
d2A d2e f2g a2f | e2d B2c d3 :| 
d3 |: d2c Bcd c2B A3 | G2F E2F G2A B2c | 
d2c Bcd c2B A2G | F2G E2F D3 D3 :|| 

